X:2
T:Reel
T:from James E Frill's Musick Book  p. 2 Bottom
T: Follow Me Down to Galway
Z:Sarah Gowan
R:Reel
M:4/4
L:1/8
K:Ador
A2 BG A2 Bd|efge dcBA|G2 BG dGBG | ABcA AGEG|
A2 BG A2 Bd|efge d2 ef| gage d2 ef | gded BA A2:|
abae abae | gaba gede | gage gage | gaba gede |
abae abae | gaba gede |gage d2 ef | gded BA A2:|
